Sources/FrostedUI/Resources/Icons.xcassets/paypal20.imageset/paypal-20.svg

<svg width="20" height="20" viewBox="0 0 20 20" fill="none" xmlns="http://www.w3.org/2000/svg" data-fui-icon="true">
  <path
    d="M11.05 1.60254C13.6697 1.60259 15.1248 2.54753 15.8508 3.76855C15.9912 4.0046 16.0994 4.24403 16.1829 4.47852C17.4359 5.07197 18.1124 5.94533 18.4495 6.79297C18.7963 7.6654 18.7659 8.46158 18.7288 8.8125C18.7172 8.92138 18.7034 9.02702 18.6907 9.12207L18.6897 9.12793C18.6201 9.6481 18.3229 11.2102 17.1194 12.6533C15.8888 14.1287 13.7839 15.3906 10.2815 15.3906H9.37524C9.36682 15.3907 9.35942 15.397 9.35767 15.4053L8.83716 18.0107C8.69513 18.7202 8.07145 19.2315 7.3479 19.2314H4.89478C4.02831 19.2314 3.3816 18.4338 3.55981 17.5859L3.69849 16.9277H2.59888C1.72631 16.9275 1.07871 16.1185 1.26782 15.2666L3.90649 3.39258C4.13901 2.34673 5.06654 1.60255 6.13794 1.60254H11.05ZM16.4192 6.54395C16.4094 6.63113 16.3983 6.7175 16.385 6.80566C16.3155 7.26783 16.0155 8.65499 14.7971 9.93164C13.5587 11.229 11.4612 12.3193 7.97778 12.3193H7.04126C7.03299 12.3193 7.02569 12.325 7.02368 12.333L6.16235 15.7773C6.04143 16.2606 5.69574 16.6392 5.25415 16.8164L5.06177 17.7314H7.3479C7.3564 17.7314 7.36368 17.7251 7.36548 17.7168L7.88696 15.1113C8.02888 14.4019 8.65174 13.8907 9.37524 13.8906H10.2815C13.3772 13.8906 15.0452 12.7977 15.967 11.6924C16.9151 10.5556 17.1512 9.31179 17.2024 8.92969L17.2034 8.92383C17.2165 8.82571 17.2276 8.74034 17.2366 8.65527C17.2596 8.43753 17.2797 7.91078 17.0559 7.34766C16.9382 7.05173 16.7469 6.73004 16.429 6.42871C16.4254 6.47222 16.4228 6.51125 16.4192 6.54395ZM6.13794 3.10254C5.76962 3.10255 5.4504 3.35828 5.37036 3.71777L2.76782 15.4277H4.6897C4.69772 15.4277 4.70502 15.4217 4.70728 15.4141L5.5686 11.9688C5.7376 11.2931 6.34474 10.8193 7.04126 10.8193H7.97778C11.1245 10.8193 12.8035 9.84748 13.7122 8.89551C14.6397 7.92361 14.8578 6.87317 14.9016 6.58203C14.9118 6.51395 14.9211 6.44677 14.929 6.37695C14.9607 6.09308 14.9963 5.26625 14.5618 4.53516C14.1676 3.87228 13.2733 3.10259 11.05 3.10254H6.13794Z"
    fill="currentColor"
  />
</svg>

<svg xmlns="http://www.w3.org/2000/svg" width="20" height="20" fill="none" data-fui-icon="true" viewBox="0 0 20 20"><path fill="currentColor" d="M11.05 1.603c2.62 0 4.075.945 4.8 2.166q.21.356.333.71c1.253.593 1.93 1.466 2.267 2.314.346.872.316 1.669.279 2.02q-.019.164-.038.31l-.001.005a7.2 7.2 0 0 1-1.57 3.525c-1.231 1.476-3.336 2.738-6.839 2.738h-.906a.02.02 0 0 0-.017.014l-.52 2.606a1.52 1.52 0 0 1-1.49 1.22H4.895a1.365 1.365 0 0 1-1.335-1.645l.138-.658h-1.1c-.872 0-1.52-.81-1.33-1.661L3.906 3.393a2.286 2.286 0 0 1 2.232-1.79zm5.37 4.94q-.015.131-.035.263c-.07.462-.37 1.849-1.588 3.126-1.238 1.297-3.336 2.387-6.82 2.387h-.936a.02.02 0 0 0-.017.014l-.862 3.444c-.12.484-.466.862-.908 1.04l-.192.914h2.286a.02.02 0 0 0 .017-.014l.522-2.606c.142-.71.765-1.22 1.488-1.22h.906c3.096 0 4.764-1.093 5.686-2.199a5.7 5.7 0 0 0 1.235-2.762l.001-.006c.014-.098.025-.184.034-.269a2.85 2.85 0 0 0-.181-1.307 2.56 2.56 0 0 0-.627-.92q-.005.066-.01.116M6.137 3.104a.786.786 0 0 0-.768.615l-2.602 11.71H4.69a.02.02 0 0 0 .017-.014l.862-3.445a1.52 1.52 0 0 1 1.472-1.15h.937c3.146 0 4.826-.972 5.734-1.923.928-.972 1.146-2.023 1.19-2.314q.016-.101.027-.205c.032-.284.067-1.11-.367-1.842-.394-.663-1.289-1.432-3.512-1.432z"/></svg>
